X: 1
T:In Memory of Tara Lynne
M:3/4
L:1/8
C:Jim Hardy
S:The Maritime Fiddler
N:transcribed by Willett Stevenson
K:G
D2|G4A<B|c4B<A|B4A<G|C3EG2|!
D2F3B|c4A<F|G6{A}|G4D2|!
G4A<B|c4B<A|B4A<G|C3EG2|!
D2F3B|c4A<F|G6|G4B<c||!
{e}d4c<B|c4B<A|B4A<G|F2dzD2|!
E2G2c2|D2F2A2|G6{A}|G4B<c|!
{e}d4c<B|c4B<A|B4A<G|F2dzD2|!
E2G2c2|d2F3A|G6|G4||!
